fs/tag_16_filled.svg

<svg viewBox="0 0 16 16" fill="none" xmlns="http://www.w3.org/2000/svg" height="1em" width="1em">
  <path d="M2.58722 7.31428C1.80426 8.0934 1.80426 9.3566 2.58722 10.1357L5.88331 13.4157C6.66627 14.1948 7.93569 14.1948 8.71865 13.4157L13.3884 8.76882C13.7608 8.3982 13.9717 7.89662 13.9755 7.3725L13.9999 4.00947C14.008 2.89877 13.1029 1.99538 11.9867 2.00002L8.73617 2.01353C8.20735 2.01572 7.70082 2.22574 7.32688 2.59785L2.58722 7.31428ZM11 6C10.4477 6 10 5.55228 10 5C10 4.44772 10.4477 4 11 4C11.5523 4 12 4.44772 12 5C12 5.55228 11.5523 6 11 6Z" fill="#212121"/>
</svg>

<svg viewBox="0 0 16 16" fill="none" xmlns="http://www.w3.org/2000/svg" height="1em" width="1em">
  <path d="M2.587 7.314a1.988 1.988 0 0 0 0 2.822l3.296 3.28a2.013 2.013 0 0 0 2.836 0l4.67-4.647a1.99 1.99 0 0 0 .587-1.397L14 4.01A2 2 0 0 0 11.987 2l-3.25.014a2.01 2.01 0 0 0-1.41.584l-4.74 4.716ZM11 6a1 1 0 1 1 0-2 1 1 0 0 1 0 2Z" fill="#212121"/>
</svg>
